icons/emergency_post_fill.svg

<svg width="48" height="48" viewBox="0 0 48 48" fill="none" xmlns="http://www.w3.org/2000/svg">
<path fill-rule="evenodd" clip-rule="evenodd" d="M43.9349 32.6489L38 18.9623V10H29V16H36V18H11.9381C10.5901 18 9.40179 18.869 9.01446 20.138L4.13073 34.138C3.54321 36.0628 5.00969 38 7.05433 38H29.2589C30.6069 38 31.7952 37.131 32.1825 35.862L36.9848 22.1289L41.592 32.3776L34.5 34.5L33.5 37L43.2941 33.9557L43.293 33.9522C43.295 33.9516 43.2969 33.951 43.2989 33.9504C43.3124 33.946 43.326 33.9413 43.3395 33.9363C43.8657 33.7424 44.1322 33.166 43.9349 32.6489ZM19.0299 31.7577C18.8959 32.2935 19.2217 32.8364 19.7575 32.9704C20.2933 33.1043 20.8362 32.7786 20.9701 32.2428L21.7808 29H25C25.5523 29 26 28.5523 26 28C26 27.4477 25.5523 27 25 27H22.2808L22.9701 24.2428C23.1041 23.707 22.7783 23.164 22.2425 23.0301C21.7067 22.8961 21.1638 23.2219 21.0299 23.7577L20.2193 27H17C16.4477 27 16 27.4477 16 28C16 28.5523 16.4477 29 17 29H19.7193L19.0299 31.7577Z" fill="black"/>
</svg>

<svg
  xmlns="http://www.w3.org/2000/svg"
  width="24"
  height="24"
  viewBox="0 0 24 24"
  fill="none"
  stroke="currentColor"
  stroke-width="2"
  stroke-linecap="round"
  stroke-linejoin="round"
>
  <path
    fill-rule="evenodd"
    d="M43.935 32.649 38 18.962V10h-9v6h7v2H11.938c-1.348 0-2.536.869-2.924 2.138l-4.883 14C3.543 36.063 5.01 38 7.054 38H29.26c1.348 0 2.536-.869 2.923-2.138l4.803-13.733 4.607 10.249L34.5 34.5l-1 2.5 9.794-3.044-.001-.004.006-.002.04-.014a.995.995 0 0 0 .596-1.287m-24.905-.891a1 1 0 1 0 1.94.485L21.78 29H25a1 1 0 1 0 0-2h-2.72l.69-2.757a1 1 0 1 0-1.94-.485L20.22 27H17a1 1 0 1 0 0 2h2.72z"
    clip-rule="evenodd"
  />
</svg>
